svg/fluentui-system-icons/ic_fluent_resize_small_16_regular.svg

<svg width="16" height="16" viewBox="0 0 16 16" fill="none" xmlns="http://www.w3.org/2000/svg">
<path d="M4.5 3C3.67157 3 3 3.67157 3 4.5V5.5C3 5.77614 2.77614 6 2.5 6C2.22386 6 2 5.77614 2 5.5V4.5C2 3.11929 3.11929 2 4.5 2H5.5C5.77614 2 6 2.22386 6 2.5C6 2.77614 5.77614 3 5.5 3H4.5ZM6 7.5C6 6.67157 6.67157 6 7.5 6H8.5C9.32843 6 10 6.67157 10 7.5V8.5C10 9.32843 9.32843 10 8.5 10H7.5C6.67157 10 6 9.32843 6 8.5V7.5ZM7.5 7C7.22386 7 7 7.22386 7 7.5V8.5C7 8.77614 7.22386 9 7.5 9H8.5C8.77614 9 9 8.77614 9 8.5V7.5C9 7.22386 8.77614 7 8.5 7H7.5ZM11.5 3C12.3284 3 13 3.67157 13 4.5V5.5C13 5.77614 13.2239 6 13.5 6C13.7761 6 14 5.77614 14 5.5V4.5C14 3.11929 12.8807 2 11.5 2H10.5C10.2239 2 10 2.22386 10 2.5C10 2.77614 10.2239 3 10.5 3L11.5 3ZM11.5 13C12.3284 13 13 12.3284 13 11.5V10.5C13 10.2239 13.2239 10 13.5 10C13.7761 10 14 10.2239 14 10.5V11.5C14 12.8807 12.8807 14 11.5 14H10.5C10.2239 14 10 13.7761 10 13.5C10 13.2239 10.2239 13 10.5 13H11.5ZM4.5 13C3.67157 13 3 12.3284 3 11.5L3 10.25C3 9.97386 2.77614 9.75 2.5 9.75C2.22386 9.75 2 9.97386 2 10.25V11.5C2 12.8807 3.11929 14 4.5 14H5.75C6.02614 14 6.25 13.7761 6.25 13.5C6.25 13.2239 6.02614 13 5.75 13H4.5Z" fill="#212121"/>
</svg>

<svg xmlns="http://www.w3.org/2000/svg" width="16" height="16"><path d="M4.5 3A1.5 1.5 0 0 0 3 4.5v1a.5.5 0 0 1-1 0v-1A2.5 2.5 0 0 1 4.5 2h1a.5.5 0 0 1 0 1h-1ZM6 7.5A1.5 1.5 0 0 1 7.5 6h1A1.5 1.5 0 0 1 10 7.5v1A1.5 1.5 0 0 1 8.5 10h-1A1.5 1.5 0 0 1 6 8.5v-1ZM7.5 7a.5.5 0 0 0-.5.5v1a.5.5 0 0 0 .5.5h1a.5.5 0 0 0 .5-.5v-1a.5.5 0 0 0-.5-.5h-1Zm4-4A1.5 1.5 0 0 1 13 4.5v1a.5.5 0 0 0 1 0v-1A2.5 2.5 0 0 0 11.5 2h-1a.5.5 0 0 0 0 1h1Zm0 10a1.5 1.5 0 0 0 1.5-1.5v-1a.5.5 0 0 1 1 0v1a2.5 2.5 0 0 1-2.5 2.5h-1a.5.5 0 0 1 0-1h1Zm-7 0A1.5 1.5 0 0 1 3 11.5v-1.25a.5.5 0 0 0-1 0v1.25A2.5 2.5 0 0 0 4.5 14h1.25a.5.5 0 0 0 0-1H4.5Z"/></svg>
